svg/part/pray_fill.svg

<?xml version="1.0" encoding="UTF-8"?>
<svg width="24px" height="24px" viewBox="0 0 24 24" version="1.1" xmlns="http://www.w3.org/2000/svg" xmlns:xlink="http://www.w3.org/1999/xlink">
    <title>pray_fill</title>
    <g id="Icon" stroke="none" stroke-width="1" fill="none" fill-rule="evenodd">
        <g id="Part" transform="translate(-528.000000, -240.000000)">
            <g id="pray_fill" transform="translate(528.000000, 240.000000)">
                <path d="M24,0 L24,24 L0,24 L0,0 L24,0 Z M12.5935,23.2578 L12.5819,23.2595 L12.5109,23.295 L12.4919,23.2987 L12.4767,23.295 L12.4057,23.2595 C12.3958,23.2564 12.387,23.259 12.3821,23.2649 L12.378,23.2758 L12.3609,23.7031 L12.3659,23.7235 L12.3769,23.7357 L12.4805,23.8097 L12.4953,23.8136 L12.5071,23.8097 L12.6107,23.7357 L12.6233,23.7197 L12.6267,23.7031 L12.6096,23.2758 C12.6076,23.2657 12.601,23.2593 12.5935,23.2578 Z M12.8584,23.1453 L12.8445,23.1473 L12.6598,23.2397 L12.6499,23.2499 L12.6472,23.2611 L12.6651,23.6906 L12.6699,23.7034 L12.6784,23.7105 L12.8793,23.8032 C12.8914,23.8069 12.9022,23.803 12.9078,23.7952 L12.9118,23.7812 L12.8777,23.1665 C12.8753,23.1546 12.8674,23.147 12.8584,23.1453 Z M12.143,23.1473 C12.1332,23.1424 12.1222,23.1453 12.1156,23.1526 L12.1099,23.1665 L12.0758,23.7812 C12.0751,23.7927 12.0828,23.8019 12.0926,23.8046 L12.1083,23.8032 L12.3092,23.7105 L12.3186,23.7024 L12.3225,23.6906 L12.3404,23.2611 L12.3372,23.2485 L12.3278,23.2397 L12.143,23.1473 Z" id="MingCute" fill-rule="nonzero"></path>
                <path d="M8.84268,4.68737 C9.0389,3.70624 9.90037,3 10.9009,3 C11.3039,3 11.6803,3.11354 12,3.31037 C12.3196,3.11354 12.696,3 13.099,3 C14.0995,3 14.961,3.70624 15.1572,4.68737 L16.6082,11.9423 C16.7598,12.7001 17.3345,13.3029 18.0843,13.4903 L19.78,13.9142 C20.5568,14.1084 21.0441,14.8785 20.887,15.6636 L20.1932,19.1328 C19.9641,20.2784 18.8059,20.9846 17.6826,20.6636 L14.6264,19.7904 C13.5485,19.4824 12.6387,18.8344 12,17.9828 C11.3612,18.8344 10.4514,19.4824 9.37356,19.7904 L6.31732,20.6636 C5.19396,20.9846 4.03584,20.2784 3.80671,19.1328 L3.11287,15.6636 C2.95585,14.8785 3.44316,14.1084 4.21994,13.9142 L5.91561,13.4903 C6.66543,13.3029 7.24012,12.7001 7.3917,11.9423 L8.84268,4.68737 Z M6.19385,15.4823 L5.16754,15.7389 L5.76787,18.7406 L6.84925,18.4316 L6.19385,15.4823 Z M17.8061,15.4823 L17.1507,18.4316 L18.232,18.7406 L18.8324,15.7389 L17.8061,15.4823 Z" id="形状" fill="#09244B"></path>
            </g>
        </g>
    </g>
</svg>

<svg xmlns="http://www.w3.org/2000/svg" width="24" height="24"><g fill="none" fill-rule="evenodd"><path d="M24 0v24H0V0h24ZM12.594 23.258l-.012.002-.071.035-.02.004-.014-.004-.071-.036c-.01-.003-.019 0-.024.006l-.004.01-.017.428.005.02.01.013.104.074.015.004.012-.004.104-.074.012-.016.004-.017-.017-.427c-.002-.01-.009-.017-.016-.018Zm.264-.113-.014.002-.184.093-.01.01-.003.011.018.43.005.012.008.008.201.092c.012.004.023 0 .029-.008l.004-.014-.034-.614c-.003-.012-.01-.02-.02-.022Zm-.715.002a.023.023 0 0 0-.027.006l-.006.014-.034.614c0 .012.007.02.017.024l.015-.002.201-.093.01-.008.003-.011.018-.43-.003-.012-.01-.01-.184-.092Z"/><path fill="#09244B" d="M8.843 4.687A2.099 2.099 0 0 1 12 3.31a2.099 2.099 0 0 1 3.157 1.377l1.451 7.255a2 2 0 0 0 1.476 1.548l1.696.424a1.5 1.5 0 0 1 1.107 1.75l-.694 3.469a2 2 0 0 1-2.51 1.53l-3.057-.873A4.993 4.993 0 0 1 12 17.983a4.994 4.994 0 0 1-2.626 1.807l-3.057.874a2 2 0 0 1-2.51-1.531l-.694-3.47a1.5 1.5 0 0 1 1.107-1.749l1.696-.424a2 2 0 0 0 1.476-1.548l1.45-7.255Zm-2.65 10.795-1.025.257.6 3.002 1.081-.31-.655-2.949Zm11.613 0-.655 2.95 1.081.309.6-3.002-1.026-.257Z"/></g></svg>
